icons/1_Primary/Hurricane Electric.svg

<svg xmlns="http://www.w3.org/2000/svg" width="1024" height="1024" fill="none">
   <g clip-path="url(#a)">
      <path fill="#54688C" d="M512 1024c282.77 0 512-229.23 512-512S794.77 0 512 0 0 229.23 0 512s229.23 512 512 512Z"/>
      <path fill="#fff" d="M512 234.5c-153.26.02-277.49 124.23-277.5 277.5-.01 153.27 124.24 277.49 277.5 277.5 153.26.01 277.48-124.24 277.5-277.5.02-153.26-124.23-277.48-277.5-277.5Zm170.06 447.57a240.497 240.497 0 0 1-303.672 29.895 240.501 240.501 0 0 1 180.543-435.842A240.499 240.499 0 0 1 752.51 512a239.667 239.667 0 0 1-70.45 170.07Zm-21.4-82.65-16.95 49.29H492.26v-5.65h7a27.766 27.766 0 0 0 13.25-3.33 12.2 12.2 0 0 0 6.33-7 28.723 28.723 0 0 0 1.21-6.55c.08-.833.153-1.73.22-2.69V464.04h-91.34v59c0 9.9.63 16.437 1.89 19.61.96 2.4 2.987 4.463 6.08 6.19a26.61 26.61 0 0 0 13.18 3.46h7.1v5.66H373v-5.56h7c8.153 0 14.07-2.357 17.75-7.07 2.327-3.073 3.49-10.47 3.49-22.19v-125.8c0-9.94-.633-16.49-1.9-19.65a12.998 12.998 0 0 0-6-6.17 27.868 27.868 0 0 0-13.34-3.44h-7v-5.65h84.2v5.65h-7.1a27.802 27.802 0 0 0-13.18 3.3 12.412 12.412 0 0 0-6.22 7c-1.167 3.113-1.747 9.447-1.74 19v56h91.32v-.22h.08v-55.82c0-9.94-.633-16.49-1.9-19.65-.967-2.393-3.003-4.45-6.11-6.17a27.075 27.075 0 0 0-13.25-3.44h-7v-5.65h84.2v5.65h-7a27.996 27.996 0 0 0-13.24 3.3 12.116 12.116 0 0 0-6.34 7c-1.147 3.08-1.72 9.4-1.72 18.96v55.75h95.17l2.05 42.63h-6.68c-2-10-4.203-16.883-6.61-20.65a22.716 22.716 0 0 0-10.75-8.56c-3.8-1.413-10.487-2.117-20.06-2.11h-52.89v76.49h42.1c10.993 0 18.327-1.667 22-5 4.927-4.387 7.677-12.127 8.25-23.22h5.65v68.28h-5.65c-1.333-9.553-2.667-15.687-4-18.4a17.998 17.998 0 0 0-8.4-8c-3.887-1.927-9.86-2.893-17.92-2.9h-42.1v64c0 4.567.107 8.18.32 10.84.054 1.643.33 3.271.82 4.84a9.004 9.004 0 0 0 4 4.43c1.913 1.1 5.553 1.65 10.92 1.65h33.05c11.013 0 19.013-.763 24-2.29a35.831 35.831 0 0 0 14.38-9c5.933-5.893 12.017-14.797 18.25-26.71l6.76.01Z"/>
   </g>
   <defs>
      <clipPath id="a">
         <path fill="#fff" d="M0 0h1024v1024H0z"/>
      </clipPath>
   </defs>
</svg>

<svg width="1024" height="1024" viewBox="0 0 1024 1024" fill="none" xmlns="http://www.w3.org/2000/svg">
<g clip-path="url(#clip0_2_2460)">
<path d="M512 1024C794.77 1024 1024 794.77 1024 512C1024 229.23 794.77 0 512 0C229.23 0 0 229.23 0 512C0 794.77 229.23 1024 512 1024Z" fill="#54688C"/>
<path d="M512 234.5C358.74 234.52 234.51 358.73 234.5 512C234.49 665.27 358.74 789.49 512 789.5C665.26 789.51 789.48 665.26 789.5 512C789.52 358.74 665.27 234.52 512 234.5ZM682.06 682.07C642.714 721.412 590.945 745.894 535.572 751.345C480.199 756.796 424.65 742.879 378.388 711.965C332.126 681.051 298.014 635.053 281.864 581.808C265.714 528.563 268.525 471.365 289.819 419.961C311.113 368.557 349.572 326.126 398.642 299.898C447.713 273.67 504.36 265.268 558.931 276.123C613.502 286.979 662.621 316.42 697.919 359.43C733.217 402.441 752.51 456.36 752.51 512C752.556 543.592 746.355 574.882 734.264 604.069C722.174 633.256 704.432 659.764 682.06 682.07ZM660.66 599.42L643.71 648.71H492.26V643.06H499.26C503.885 643.071 508.44 641.926 512.51 639.73C513.977 639.042 515.292 638.069 516.379 636.867C517.466 635.665 518.303 634.259 518.84 632.73C519.496 630.601 519.902 628.403 520.05 626.18C520.13 625.347 520.203 624.45 520.27 623.49V464.04H428.93V523.04C428.93 532.94 429.56 539.477 430.82 542.65C431.78 545.05 433.807 547.113 436.9 548.84C440.919 551.118 445.461 552.31 450.08 552.3H457.18V557.96H373V552.4H380C388.153 552.4 394.07 550.043 397.75 545.33C400.077 542.257 401.24 534.86 401.24 523.14V397.34C401.24 387.4 400.607 380.85 399.34 377.69C398.099 375.012 395.983 372.836 393.34 371.52C389.251 369.275 384.664 368.092 380 368.08H373V362.43H457.2V368.08H450.1C445.501 368.073 440.973 369.207 436.92 371.38C434.012 372.812 431.78 375.324 430.7 378.38C429.533 381.493 428.953 387.827 428.96 397.38V453.38H520.28V453.16H520.36V397.34C520.36 387.4 519.727 380.85 518.46 377.69C517.493 375.297 515.457 373.24 512.35 371.52C508.301 369.257 503.738 368.073 499.1 368.08H492.1V362.43H576.3V368.08H569.3C564.682 368.071 560.134 369.205 556.06 371.38C554.588 372.063 553.269 373.034 552.18 374.236C551.09 375.439 550.254 376.848 549.72 378.38C548.573 381.46 548 387.78 548 397.34V453.09H643.17L645.22 495.72H638.54C636.54 485.72 634.337 478.837 631.93 475.07C629.316 471.175 625.561 468.185 621.18 466.51C617.38 465.097 610.693 464.393 601.12 464.4H548.23V540.89H590.33C601.323 540.89 608.657 539.223 612.33 535.89C617.257 531.503 620.007 523.763 620.58 512.67H626.23V580.95H620.58C619.247 571.397 617.913 565.263 616.58 562.55C614.74 559.029 611.786 556.217 608.18 554.55C604.293 552.623 598.32 551.657 590.26 551.65H548.16V615.65C548.16 620.217 548.267 623.83 548.48 626.49C548.534 628.133 548.81 629.761 549.3 631.33C550.091 633.219 551.502 634.781 553.3 635.76C555.213 636.86 558.853 637.41 564.22 637.41H597.27C608.283 637.41 616.283 636.647 621.27 635.12C626.715 633.314 631.646 630.228 635.65 626.12C641.583 620.227 647.667 611.323 653.9 599.41L660.66 599.42Z" fill="white"/>
</g>
<defs>
<clipPath id="clip0_2_2460">
<rect width="1024" height="1024" fill="white"/>
</clipPath>
</defs>
</svg>
